src/assets/bold/lm-file-pdf-sparkle-bold.svg

<svg width="24" height="24" viewBox="0 0 24 24" fill="none" xmlns="http://www.w3.org/2000/svg" fill="currentColor">
<path d="M6.85896 3.53846C6.51894 3.53846 6.19285 3.67353 5.95242 3.91397C5.71199 4.1544 5.57691 4.48049 5.57691 4.82051V12C5.57691 12.4248 5.23252 12.7692 4.80768 12.7692C4.38285 12.7692 4.03845 12.4248 4.03845 12V4.82051C4.03845 4.07247 4.33561 3.35506 4.86456 2.82611C5.39351 2.29716 6.11092 2 6.85896 2H14.0385C14.2425 2 14.4381 2.08104 14.5824 2.2253L19.7106 7.35351C19.8548 7.49777 19.9359 7.69342 19.9359 7.89744V12C19.9359 12.4248 19.5915 12.7692 19.1667 12.7692C18.7418 12.7692 18.3974 12.4248 18.3974 12V8.66667H15.0641C14.5881 8.66667 14.1315 8.47756 13.7949 8.14096C13.4583 7.80436 13.2692 7.34783 13.2692 6.8718V3.53846H6.85896ZM14.8077 4.62632V6.8718C14.8077 6.9398 14.8347 7.00502 14.8828 7.0531C14.9309 7.10119 14.9961 7.12821 15.0641 7.12821H17.3096L14.8077 4.62632ZM4.03845 15.0769C4.03845 14.6521 4.38285 14.3077 4.80768 14.3077H6.34614C6.95818 14.3077 7.54515 14.5508 7.97793 14.9836C8.41071 15.4164 8.65384 16.0033 8.65384 16.6154C8.65384 17.2274 8.41071 17.8144 7.97793 18.2472C7.54515 18.6799 6.95818 18.9231 6.34614 18.9231H5.57691V21.2308C5.57691 21.6556 5.23252 22 4.80768 22C4.38285 22 4.03845 21.6556 4.03845 21.2308V15.0769ZM5.57691 17.3846H6.34614C6.55016 17.3846 6.74581 17.3036 6.89007 17.1593C7.03433 17.0151 7.11538 16.8194 7.11538 16.6154C7.11538 16.4114 7.03433 16.2157 6.89007 16.0715C6.74581 15.9272 6.55016 15.8462 6.34614 15.8462H5.57691V17.3846ZM10.1923 15.0769C10.1923 14.6521 10.5367 14.3077 10.9615 14.3077H11.9872C12.7352 14.3077 13.4526 14.6049 13.9816 15.1338C14.5105 15.6628 14.8077 16.3802 14.8077 17.1282V19.1795C14.8077 19.9275 14.5105 20.6449 13.9816 21.1739C13.4526 21.7028 12.7352 22 11.9872 22H10.9615C10.5367 22 10.1923 21.6556 10.1923 21.2308V15.0769ZM11.7308 15.8462V20.4615H11.9872C12.3272 20.4615 12.6533 20.3265 12.8937 20.086C13.1341 19.8456 13.2692 19.5195 13.2692 19.1795V17.1282C13.2692 16.7882 13.1341 16.4621 12.8937 16.2217C12.6533 15.9812 12.3272 15.8462 11.9872 15.8462H11.7308ZM16.3461 15.0769C16.3461 14.6521 16.6905 14.3077 17.1154 14.3077H20.1923C20.6171 14.3077 20.9615 14.6521 20.9615 15.0769C20.9615 15.5018 20.6171 15.8462 20.1923 15.8462H17.8846V17.3846H19.1667C19.5915 17.3846 19.9359 17.729 19.9359 18.1538C19.9359 18.5787 19.5915 18.9231 19.1667 18.9231H17.8846V21.2308C17.8846 21.6556 17.5402 22 17.1154 22C16.6905 22 16.3461 21.6556 16.3461 21.2308V15.0769Z" fill="black"/>
<path d="M10.9791 7.3949L11.7647 7.64926L11.7801 7.65336C11.8407 7.6746 11.8932 7.71413 11.9303 7.7665C11.9674 7.81886 11.9874 7.88147 11.9874 7.94567C11.9874 8.00987 11.9674 8.07248 11.9303 8.12484C11.8932 8.17721 11.8407 8.21674 11.7801 8.23798L10.9955 8.49234C10.7569 8.5719 10.5401 8.7059 10.3623 8.88374C10.1844 9.06158 10.0504 9.27837 9.97087 9.51695L9.71548 10.3005C9.69425 10.3611 9.65471 10.4136 9.60235 10.4507C9.54998 10.4879 9.48737 10.5078 9.42317 10.5078C9.35898 10.5078 9.29637 10.4879 9.244 10.4507C9.19164 10.4136 9.1521 10.3611 9.13087 10.3005L8.87651 9.51695C8.79725 9.27769 8.66327 9.06021 8.48522 8.88181C8.30718 8.70341 8.08997 8.569 7.85087 8.48926L7.06625 8.23387C7.00567 8.21264 6.95318 8.1731 6.91605 8.12074C6.87891 8.06837 6.85896 8.00576 6.85896 7.94157C6.85896 7.87737 6.87891 7.81476 6.91605 7.76239C6.95318 7.71003 7.00567 7.67049 7.06625 7.64926L7.85087 7.3949C8.0866 7.31331 8.30032 7.1784 8.47538 7.00068C8.65043 6.82296 8.78209 6.60723 8.8601 6.37028L9.11446 5.58669C9.13569 5.52611 9.17523 5.47362 9.22759 5.43649C9.27996 5.39935 9.34257 5.37941 9.40677 5.37941C9.47096 5.37941 9.53357 5.39935 9.58594 5.43649C9.6383 5.47362 9.67784 5.52611 9.69907 5.58669L9.95548 6.37028C10.0349 6.60876 10.1688 6.82547 10.3464 7.0033C10.5241 7.18113 10.7407 7.3152 10.9791 7.3949Z" fill="black"/>
</svg>

<svg xmlns="http://www.w3.org/2000/svg" width="24" height="24" fill="currentColor" viewBox="0 0 24 24">
  <path d="M6.859 3.538a1.282 1.282 0 0 0-1.282 1.283V12a.77.77 0 0 1-1.539 0V4.82A2.82 2.82 0 0 1 6.86 2h7.18c.204 0 .4.081.543.225l5.129 5.129a.77.77 0 0 1 .225.543V12a.77.77 0 0 1-1.539 0V8.667h-3.333a1.795 1.795 0 0 1-1.795-1.795V3.538H6.86Zm7.949 1.088v2.246a.256.256 0 0 0 .256.256h2.246l-2.502-2.502Zm-10.77 10.45a.77.77 0 0 1 .77-.768h1.538a2.308 2.308 0 1 1 0 4.615h-.77v2.308a.77.77 0 0 1-1.538 0v-6.154Zm1.539 2.309h.77a.769.769 0 1 0 0-1.539h-.77v1.539Zm4.615-2.308a.77.77 0 0 1 .77-.77h1.025a2.82 2.82 0 0 1 2.82 2.821v2.052a2.82 2.82 0 0 1-2.82 2.82h-1.026a.77.77 0 0 1-.769-.77v-6.153Zm1.539.77v4.615h.256a1.282 1.282 0 0 0 1.282-1.282v-2.052a1.282 1.282 0 0 0-1.282-1.282h-.256Zm4.615-.77a.77.77 0 0 1 .77-.77h3.076a.77.77 0 0 1 0 1.54h-2.307v1.538h1.282a.77.77 0 0 1 0 1.538h-1.282v2.308a.77.77 0 0 1-1.539 0v-6.154Z"/>
  <path d="m10.98 7.395.785.254.015.004a.31.31 0 0 1 0 .585l-.784.254A1.62 1.62 0 0 0 9.97 9.517l-.256.784a.31.31 0 0 1-.584 0l-.254-.784A1.62 1.62 0 0 0 7.85 8.489l-.785-.255a.31.31 0 0 1 0-.585l.785-.254A1.62 1.62 0 0 0 8.86 6.37l.253-.783a.31.31 0 0 1 .585 0l.256.783a1.62 1.62 0 0 0 1.024 1.025Z"/>
</svg>
